!!!COM: Robert Franz
!!!CNT: Deutscher
!!!TXO: Deutsche 
!!!OTL: "Sie liebten sich beide"
!!!OPS: Op. 31
!!!ONM: No. 4
!!!ONB: Original key: g# minor
!!!LYR: H. Heine
!!!ENC: Brian Bice
!!!YOR: Vocal Album, G. Schirmer, Inc., 1907
!!!ODT: 1870/
!!NB: Vocal melody and text only encoded.
**kern	**silbe
*clefG2	*
*k[f#c#g#]	*
*M3/8	*
=3	=3
4r	.
{8e	{Sie
=4	=4
8.e	lieb-
16a	-ten
8cc#	sich
=5	=5
8.b	bei-
16a	-de,
8g#	doch
=6	=6
(4.a	kei-
=7	=7
4.f#)	|
=8	=8
4g}	-ner}
8r	.
=9	=9
{8.e	{wollt'
16d#	es
8c#	dem
=10	=10
8.a	An-
16g#	-dern
8f#	ge-
=11	=11
(4.cc#	-steh'n;
=12	=12
4dd#)}	|}
8r	.
=13	=13
4r	.
{8b	{sie
=14	=14
8.e	sa-
16f#	-hen
8g#	sich
=15	=15
(8a	an
8g#)	|
8f#	so
=16	=16
(4e	feind-
8f#)	|
=17	=17
4g#}	-lich,}
{8d	{und
=18	=18
8.c#	woll-
16e	-ten
8a	vor
=19	=19
8.g#	Lie-
16f#	-be
8e#	ver-
=2-	=20
(4.f#	geh'n
=21	=21
4g#)}	|}
8r	.
=22	=22
4r	.
{8e	{Sie
=23	=23
8.e	trenn-
16a	-ten
8cc#	sich
=24	=24
8.b	end-
16a	-lich
8g#	und
=25	=25
(4.a	sah'n
=26	=26
4.f#)	|
=27	=27
4g#}	sich}
8r	.
=28	=28
{8.e	{nur
16d#	noch
8c#	zu-
=29	=29
8.a	-wei-
16g#	-len
8f#	im
=30	=30
(4.cc#	Traum;
=31	=31
4dd#)}	|}
8r	.
=32	=32
4r	.
{8b	{sie
=33	=33
8.e	wa-
16f#	-ren
8g#	schon
=34	=34
8.a	lan-
16g#	-ge
8f#	ge-
=35	=35
(4e	-stor-
8f#)	|
=36	=36
4g#}	-ben}
{8d	{und
=37	=37
8.c#	wuss-
16e	-ten
8a	es
=38	=38
(8g#	sel-
8f#)	|
8e#	-ber
=39	=39
(4.f#	kaum.
=40	=40
4g#)}	|}
8r	.
*-	*-
